img/fasad.svg

<svg width="48" height="48" viewBox="0 0 48 48" fill="none" xmlns="http://www.w3.org/2000/svg">
<g clip-path="url(#clip0)">
<path d="M46.967 25.747C50.602 12.625 44.314 0 33.295 0C27.198 0 24.595 3.504 17.898 11.663C11.2 19.822 1.65 8.478 0 25.747C1.386 41.66 18.652 56.064 26.668 42.774C33.966 30.674 43.333 38.868 46.968 25.747H46.967Z" fill="#E6F1F9"/>
<mask id="mask0" mask-type="alpha" maskUnits="userSpaceOnUse" x="12" y="14" width="24" height="20">
<path d="M35 14H13C12.4477 14 12 14.4477 12 15V33C12 33.5523 12.4477 34 13 34H35C35.5523 34 36 33.5523 36 33V15C36 14.4477 35.5523 14 35 14Z" fill="white"/>
</mask>
<g mask="url(#mask0)">
<path d="M35 14H13C12.4477 14 12 14.4477 12 15V33C12 33.5523 12.4477 34 13 34H35C35.5523 34 36 33.5523 36 33V15C36 14.4477 35.5523 14 35 14Z" stroke="#036FC7" stroke-width="4"/>
<path d="M12 20H28V22H12V20ZM12 26H19V28H12V26Z" fill="#036FC7"/>
<path d="M18 15H20V21H18V15ZM23 21H25V26H23V21ZM28 15H30V21H28V15Z" fill="#036FC7"/>
<path d="M35 32V18C28 18 29.5 21.5 28 24C26.5 26.5 23.64 25.472 21 26C18.5 26.5 18.5 31 18.5 33H34C34.2652 33 34.5196 32.8946 34.7071 32.7071C34.8946 32.5196 35 32.2652 35 32Z" stroke="#036FC7" stroke-width="2"/>
</g>
</g>
<defs>
<clipPath id="clip0">
<rect width="48" height="48" fill="white"/>
</clipPath>
</defs>
</svg>

<svg width="48" height="48" fill="none" xmlns="http://www.w3.org/2000/svg"><g clip-path="url(#clip0)"><path d="M46.967 25.747C50.602 12.625 44.314 0 33.295 0c-6.097 0-8.7 3.504-15.397 11.663C11.2 19.822 1.65 8.478 0 25.747 1.386 41.66 18.652 56.064 26.668 42.774c7.298-12.1 16.665-3.906 20.3-17.027h-.001z" fill="#E6F1F9"/><mask id="a" maskUnits="userSpaceOnUse" x="12" y="14" width="24" height="20"><path d="M35 14H13a1 1 0 00-1 1v18a1 1 0 001 1h22a1 1 0 001-1V15a1 1 0 00-1-1z" fill="#fff"/></mask><g mask="url(#a)"><path d="M35 14H13a1 1 0 00-1 1v18a1 1 0 001 1h22a1 1 0 001-1V15a1 1 0 00-1-1z" stroke="#036FC7" stroke-width="4"/><path d="M12 20h16v2H12v-2zm0 6h7v2h-7v-2z" fill="#036FC7"/><path d="M18 15h2v6h-2v-6zm5 6h2v5h-2v-5zm5-6h2v6h-2v-6z" fill="#036FC7"/><path d="M35 32V18c-7 0-5.5 3.5-7 6s-4.36 1.472-7 2c-2.5.5-2.5 5-2.5 7H34a1 1 0 001-1z" stroke="#036FC7" stroke-width="2"/></g></g><defs><clipPath id="clip0"><path fill="#fff" d="M0 0h48v48H0z"/></clipPath></defs></svg>
